res/icons/TREEITEM_CODE.svg

<svg xmlns="http://www.w3.org/2000/svg" viewBox="0 0 24 24">
    <g>
        <path fill="none" d="M0 0h24v24H0z"/>
        <path d="M24 12l-5.657 5.657-1.414-1.414L21.172 12l-4.243-4.243 1.414-1.414L24 12zM2.828 12l4.243 4.243-1.414 1.414L0 12l5.657-5.657L7.07 7.757 2.828 12zm6.96 9H7.66l6.552-18h2.128L9.788 21z"/>
    </g>
</svg>

<?xml version="1.0" encoding="UTF-8" standalone="no"?>
<svg
   viewBox="0 0 24 24"
   version="1.1"
   id="svg8"
   sodipodi:docname="TREEITEM_CODE.svg"
   inkscape:version="1.1.1 (3bf5ae0d25, 2021-09-20)"
   xmlns:inkscape="http://www.inkscape.org/namespaces/inkscape"
   xmlns:sodipodi="http://sodipodi.sourceforge.net/DTD/sodipodi-0.dtd"
   xmlns="http://www.w3.org/2000/svg"
   xmlns:svg="http://www.w3.org/2000/svg">
  <defs
     id="defs12" />
  <sodipodi:namedview
     id="namedview10"
     pagecolor="#ffffff"
     bordercolor="#666666"
     borderopacity="1.0"
     inkscape:pageshadow="2"
     inkscape:pageopacity="0.0"
     inkscape:pagecheckerboard="0"
     showgrid="false"
     inkscape:snap-object-midpoints="true"
     inkscape:snap-center="true"
     inkscape:snap-page="true"
     showguides="true"
     inkscape:guide-bbox="true"
     inkscape:zoom="33.833333"
     inkscape:cx="11.985222"
     inkscape:cy="12.014778"
     inkscape:window-width="1920"
     inkscape:window-height="1001"
     inkscape:window-x="-9"
     inkscape:window-y="-9"
     inkscape:window-maximized="1"
     inkscape:current-layer="svg8">
    <sodipodi:guide
       position="12,12"
       orientation="-1,0"
       id="guide911"
       inkscape:label=""
       inkscape:locked="false"
       inkscape:color="rgb(0,0,255)" />
  </sodipodi:namedview>
  <path
     fill="none"
     d="M 0,0 H 24 V 24 H 0 Z"
     id="path2" />
  <path
     d="M 24,12 18.343,17.657 16.929,16.243 21.172,12 16.929,7.757 18.343,6.343 Z M 2.828,12 7.071,16.243 5.657,17.657 0,12 5.657,6.343 7.07,7.757 Z"
     id="path4"
     sodipodi:nodetypes="cccccccccccccc"
     style="fill:#5f8dd3;fill-opacity:1" />
  <path
     d="m 9.7880001,21 h -2.128 L 14.212,2.9999998 h 2.128 z"
     id="path944"
     style="fill:#b380ff;fill-opacity:1" />
</svg>
